X:1     %Music
T:The Barkshire Tragedy
B:Broadwood, L, 1893, English County Songs, London, Leadenhall Press
S:The tune from G.K. Fortesque, Esq; the words from "The Scouring of the White Horse"
Z:Lucy Broadwood
F:http://www.folkinfo.org/songs
M:6/8     %Meter
L:1/8     %
K:D
F |A A G E E G |A2 F E2 
w:A var-mer he lived in the West Count-ree, 
D/D/ |E3 A,3 | E3 A,2
w:(With a hey down, bow down) 
 F |A A G E F G |A2 F D2 
w:A var-mer he lived in the West Coun-tree, 
D |G2 F E2 D | C C B, HA,2
w:And he had daugh-ters, one, two and three. 
 A, |D2 D D F B |A3 G2 F |F F F E D E | D3  |]
w:(And I'll be true to my love, if my love 'll be true_ to me.)